X: 20867
T: Jolly Pigeons, The
R: reel
M: 4/4
K: Eminor
EFGA B ~E3|~B3 A ~B2 dB|A ~F3 D ~F3|AFdB ADFD|
EFGA BE E/E/E|B/c/B Ac ~B2 de|f/g/f eB d2 AF|BFAF E3:|
Bee^d ~e2 ge|~f2 e/d/A Bdde|feBe f ~e3|fedB BAFA|
Be e/e/e ~e2 g/f/e|fedA Bd d/d/d|f/e/d Bd AFDF|BFAF E3:|

